X:0775
M:6/8
L:1/8
Q:3/8=112
K:A Dorian
c2d e2f|g2a g3 |GAB cGE|G3 E2E|A2B c2c|Bdc BA^G|ABc dcB|c3 c3:|

